X: 33880
T: Red Haired Man's Wife, The
R: waltz
M: 3/4
K: Dmajor
|:f>e|d2 ed cA|c2 dc AG|F>E FA GE|E2 D2 D2|D4:|
|:DE|F2 G2 AB|=cA dc AG|A2 d2 cd/e/|d4 D>E|F2 GF ED|
F2 G2 AB|=cA dc AG|A2 c2 de|f4 ef|d2 ed cA|
cA dc AG|FE FA GE|E2 D2 D2|D4:|

